assets/forward-fill.svg

<svg xmlns="http://www.w3.org/2000/svg" fill="none" viewBox="0 0 28 28">
  <path fill="#2A2238" fill-rule="evenodd" d="M28 14c0 7.732-6.268 14-14 14-7.73199 0-14-6.268-14-14C0 6.26801 6.26801 0 14 0c7.732 0 14 6.26801 14 14Zm-13.05.6062-6.9 3.9837c-.46667.2695-1.05-.0673-1.05-.6062v-7.9674c0-.53888.58333-.87566 1.05-.60623l6.9 3.98373c.0173.01.034.0205.05.0316v-3.4091c0-.53888.5833-.87566 1.05-.60623l6.9 3.98373c.4667.2694.4667.943 0 1.2124l-6.9 3.9837c-.4667.2695-1.05-.0673-1.05-.6062v-3.4091c-.016.0111-.0327.0216-.05.0316Z" clip-rule="evenodd"/>
</svg>

<svg width="28" height="28" viewBox="0 0 28 28" fill="none" xmlns="http://www.w3.org/2000/svg">
<path fill-rule="evenodd" clip-rule="evenodd" d="M28 14C28 21.732 21.732 28 14 28C6.26801 28 0 21.732 0 14C0 6.26801 6.26801 0 14 0C21.732 0 28 6.26801 28 14ZM14.95 14.6062L8.05 18.5899C7.58333 18.8594 7 18.5226 7 17.9837V10.0163C7 9.47742 7.58333 9.14064 8.05 9.41007L14.95 13.3938C14.9673 13.4038 14.984 13.4143 15 13.4254V10.0163C15 9.47742 15.5833 9.14064 16.05 9.41007L22.95 13.3938C23.4167 13.6632 23.4167 14.3368 22.95 14.6062L16.05 18.5899C15.5833 18.8594 15 18.5226 15 17.9837V14.5746C14.984 14.5857 14.9673 14.5962 14.95 14.6062Z" fill="#2A2238"/>
</svg>
